X: 14
T: Heather Breeze, The
Z: UPipes & harp
S: https://thesession.org/tunes/411#setting49917
R: reel
M: 4/4
L: 1/8
K: Gmaj
|DGBG dGBG | DFAF cFAF | DGBG dGBG | (3Bcd cA {c}A2 ~G2|
DGBG dGBG | DFAF cFAF | DGBG dGBG | (3Bcd cA {c}A2 ~G2 ||
|~g3 f gbag | fdde fgaf | g2 gf gbag| fdcA A2 ~G2 |
g2 gf gbag | fdde fgaf | ~g3 a (3bag ag | fdcA A2 G2 ||

